!!!OTL: Der verwundete Knabe (21c), S. 89f
!!!id: T0139
**kern
*clefG2
*k[]
*G:
{4d
=1
4b
8a
8a
=2
4g
4d}
=3
{8ee
8ee
=4
4.dd
8cc
=5
4b
4dd
=6
4a}
4r
=7
{8dd
8dd
=8
8dd
8dd
8dd
8cc
=9
4.b
8cc
=10
4dd}
=11
{8ee
8ee
=12
8dd
8dd
8cc
8b
=13
4.a
8b
=14
4cc}
=15
{8cc
8ee
=16
4dd
8dd
8cc
=17
4b}
==
*-
!!!minrhy: 8
!!!meters: 2/4 3/4 ]  ZZ[5
!!!cut: Der verwundete Knabe (21c), S. 89f
!!!reg: Luxemburg
!!!trd: Singendes Volk, Esch-Alzette 1937 posth.
!!!rhy1: X_  X_XX  X_X_
!!!rhy2: XX  X_.X  X_X_  X_0_
!!!key: T0139  08  G 2/4 3/4 ]  ZZ[5
!!!mod: SECHSTONSKALA DUR ?]  AMBITUS[9
!!!kad: -52543
!!!akz: 31_532_535_524_53_
!!!fot: 'a__b__c__d__bw_
!!!for: 'a__b__c__c__aw_
!!!fok: '^__\__V__Vd_\__
!! PHRAS[AUFTAKTIG]
!!!fkt: Liebeslieder
!!!bem: Heffingen, fff Marie Berchem, 1906
!! THILL, Mathias:
!! PR[38] 2K[7] 2G[10] 3K[0] 3G[3] 4A[0] 4Ü[0] 5A[3] 6K[0] 6G[0]
!! 7K[0] 7G[0] 8A[3] MEHR[0] SI[28] ABS[29] SR[17] SP[10]
!! ST[8] 2k[3] 2g[21] 3k[7] 3g[0] 4d[0] 4ü[0] 5d[3] 6k[0] 6g[0]
!! 7k[0] 7g[0] 8d[0] mehr[0] si[34] dm[-6] sr[24] sp[10]
!! 1F[13] 2F[77] 3F[10] 4F[0] LF[0] 2P[0] 3P[0] 4P[0] TRI[0] DF[3] AB[31]
!! TF[0] U3K[0] U3[0] U4[0] U4Ü[0] U5[0] U6K[0] U6[0] U7K[0] U7[0]
!! N1[3] N2K[0] N2[7] N3K[0] N3[3] N4[3] N4Ü[0] N5[27] N6K[0] N6[13]
!!!n7k: 0] N7[10] O1[13] O2K[0] O2[17] O3K[0] O3[3] HÖ[0
